X:1
T:Iona, 87.87 D
T:John Stainer, 1868
T:Iona, 87.87 D
T:Public Domain
C:John Stainer, 1868
Z:Public Domain
%%score ( 1 2 ) ( 3 4 )
L:1/8
M:4/4
K:F
V:1 treble 
V:2 treble 
V:3 bass 
V:4 bass 
V:1
 [CF]2 [FA]2 [Fc]2 [FB]2 | [FA]2 [EG]2 [FB]2 [EA]2 | [DG]2 [CF]2 [DA]2 [DG]2 | [CF]2 [CE]2 [CF]4 | %4
 F2 [FA]2 [Gd]2 [Gc]2 | [Fc]2 [F=B]2 [FA]2 [FG]2 | [Ee]2 [Ed]2 [Ec]2 [FA]2 | [EG]2 [F=B]2 [Ec]4 | %8
 [Ec]2 [EB]2 [_EA]2 [EG]2 | [DG]2 [D^F]2 [DG]2 [DA]2 | [DB]2 [_E_e]2 [Fd]2 [Gc]2 | %11
 [FB]2 [Fc]2 [Fd]4 | [Fd]2 [Ff]2 [Fd]2 [Fc]2 | [DB]2 [Gc]2 [FA]2 [FB]2 | [Fc]2 [Fd]2 [Ec]2 F2 | %15
 [DG]2 [CE]2 [CF]4 |] %16
V:2
 x8 | x8 | x8 | x8 | F2 x6 | x8 | x8 | x8 | x8 | x8 | x8 | x8 | x8 | x8 | x6 F2 | x8 |] %16
V:3
 [F,A,]2 [D,D]2 [A,,C]2 [B,,D]2 | [C,C]2 [C,C]2 [D,B,]2 [C,C]2 | %2
 [B,,G,]2 [A,,A,]2 [B,,F,]2 [B,,B,]2 | [C,A,]2 [C,G,]2 [F,A,]4 | [F,A,]2 [F,C]2 [F,=B,]2 [E,C]2 | %5
 [D,F,]2 [D,G,]2 [C,A,]2 [=B,,D]2 | [C,C]2 [E,^G,]2 A,2 [F,C]2 | [G,C]2 [G,D]2 [C,C]4 | %8
 [C,G,]2 [C,G,]2 [C,C]2 [C,B,]2 | [D,B,]2 [C,A,]2 [B,,G,]2 [D,^F,]2 | %10
 G,2 [G,B,]2 [F,B,]2 [_E,_E]2 |!f! [F,D]2 [F,A,]2 [B,,B,]4 | B,2 [A,C]2 B,2 [F,A,]2 | %13
 G,2 [E,G,]2 [F,C]2 [D,B,]2 | [A,,A,]2 [B,,G,]2 [C,B,]2 [D,A,]2 | [B,,B,]2 [C,G,]2 [F,A,]4 |] %16
V:4
 x8 | x8 | x8 | x8 | x8 | x8 | x4 A,2 x2 | x8 | x8 | x8 | G,2 x6 | x8 | B,2 B,2 x4 | G,2 x6 | x8 | %15
 x8 |] %16

